X:401
T:Would You Have/Court a Young Virgin of Fifteen?aka. JBu.10
T:La Native,aka. JBu.10
T:Poor Robin's Maggot,aka. JBu.10
T:If The Heart of a Man is Depressed With Cares,aka. JBu.10
R:jig 32
O:England,South Yorkshire
S:Joshua Burnett's MS,c1835,S.Yorkshire
M:6/8
L:1/8
Q:1/8=140
N:Untitled in MS
Z:vmp.R.Greig.2010
K:D
F>G|A>BA A>BA|d2AA2F>G|A>BA A>BA|e2AA2F>G|
A>BA A>BA|d2Ae2A|f>ed ABc|d2DD2:|
|:f>ed f>ed|e2AA3|f>ed f>ed|g2ee3|
f>ed f>ed|g>feHa2g|f>ed A>dc|d2DD2:|

